!! 00017] TT[TB
!! Zh. Ch. 38257, 38257A-B), J 4812)
!!!OTL: FunÅ ziyou ge
!!!ARE: Asia, China, Shanxi, Qitai
!! Ethnic Group: Han
!! I, 281
!!!SCT: C0073
!!!YEM: Copyright 1995, estate of Helmut Schaffrath.
**kern
*ICvox
*Ivox
!! Mixed meters:  4/4; 2/4
*M2/4
*k[f#]
*G:
{8.b
16ee
8dd
8b
4.a
8b
=1
8.dd
16ee
8dd
8a
4g
8f#
8e}
=2
{8.b
16ee
8dd
16dd
16f#
8a
8g
8f#
8e
=3
8.a
16b
8a
8e
2d}
=4
{8f#
16a
16b
4a
8.b
16ee
8dd
8b
=5
8dd
16a
16b
8a
8d
8.f#
16b
8a
8g
=6
8f#
16e
16e
8d
16e
16g
2d}
=7
{8.b
16ee
8dd
8b
8dd
4a
8b
=8
8.dd
16ee
8dd
8a
4g
8f#
8e}
=9
{8.b
16ee
8dd
8f#
8a
8g
8f#
8e
=10
8.a
16b
8a
8e
2d}
=11
{8.a
16b
8.a
16a
8.b
16ee
8dd
8b
=12
8dd
16a
16b
8a
8d
8.f#
16b
8a
8g
=13
8f#
8e
8d
16e
16g
2d}
=14
{4dd
8cc
8b
=15
8ee
8b
4a
=16
8dd
8a
8b
8dd
=17
4g
8f#
8e}
=18
{8dd
8f#
8a
8b
=19
8a
8g
8f#
8e
=20
8d
8e
8a
8g
=21
2d}
=22
{8b
8dd
4a
=23
8b
8dd
4a
=24
4dd
8a
8g
=25
8f#
8e
4d}
=26
{8.b
16dd
8a
8b
=27
8.dd
16ee
8dd
8cc
=28
8b
16a
16b
8a
8e
=29
2d}
=30
{8g
8e
4d
=31
8a
4a
8b
=32
4dd
8a
8g
=33
8f#
8e
4d}
=34
{8.b
16dd
8a
8b
=35
8.dd
16ee
8dd
8cc
=36
8b
16a
16b
8a
8d
=37
8.g
16a
8f#
8e
=38
2d}
=39
{8.b
16dd
8a
8b
=40
8.dd
16ee
8dd
8cc
=41
8b
16a
16b
8a
8d
=42
8.g
16a
8f#
8e
=43
2d}
=44
{8b
8dd
4a
=45
8b
8dd
4a
=46
8.dd
16ee
8dd#
8cc
=47
8.ee#
16cc
8b
8a}
=48
{8r
8dd#
8cc
8b
=49
8ee
8f#
8a
8b
=50
8a
8f#
8e
8d
=51
2A}
=52
{8.ee
16ee#
8cc
8b
=53
8a
8e
4a}
=54
{8a
8e
8a#
8g
=55
8a
8b
4a}
=56
{8a
8e
8a#
8g
=57
8a
8b
4a}
=58
{8.ee
16f#
8a
8f#
=59
8a
8b
4a}
=60
{8.ee
16ee#
8cc
8b
=61
8a
8e
8a
8a}
=62
{8a
8dd#
8cc
8dd
=63
4a
8dd
8f#
=64
8e
8d
4A}
=65
{8.ee
16ee#
8cc
8b
=66
8a
8e
8a
8a}
=67
{8a
8dd#
8cc
8dd
=68
8ee
8dd#
8cc
8b
=69
2dd}
==
!!!ONB: ESAC (Essen Associative Code) Database: CHINA
!!!AMT: irregular
!!!AIN: vox
!!!EED: Helmut Schaffrath
!!!EEV: 1.0
*-
